packages/icons/svg/Fill/chevron-up.svg

<svg width="24" height="24" viewBox="0 0 24 24" fill="none" xmlns="http://www.w3.org/2000/svg">
<g id="Icon/Fill/chevron-up">
<path id="Mask" fill-rule="evenodd" clip-rule="evenodd" d="M16 14.5C15.744 14.5 15.488 14.402 15.293 14.207L11.988 10.902L8.69502 14.082C8.29702 14.466 7.66502 14.456 7.28102 14.057C6.89702 13.66 6.90802 13.026 7.30502 12.643L11.305 8.781C11.698 8.402 12.322 8.407 12.707 8.793L16.707 12.793C17.098 13.184 17.098 13.816 16.707 14.207C16.512 14.402 16.256 14.5 16 14.5Z" fill="#000000"/>
</g>
</svg>

<svg fill="none" height="24" viewBox="0 0 24 24" width="24" xmlns="http://www.w3.org/2000/svg"><path clip-rule="evenodd" d="m16 14.4999c-.256 0-.512-.098-.707-.293l-3.305-3.305-3.29301 3.18c-.398.384-1.03.374-1.414-.025-.384-.397-.373-1.031.024-1.414l4.00001-3.86199c.393-.379 1.017-.374 1.402.012l4 3.99999c.391.391.391 1.023 0 1.414-.195.195-.451.293-.707.293" fill="#6b7280" fill-rule="evenodd"/></svg>
